Numix/16/actions/stock_video-conferencing.svg

<?xml version="1.0" encoding="UTF-8" standalone="no"?>
<!-- Created with Inkscape (http://www.inkscape.org/) -->

<svg
   xmlns:dc="http://purl.org/dc/elements/1.1/"
   xmlns:cc="http://creativecommons.org/ns#"
   xmlns:rdf="http://www.w3.org/1999/02/22-rdf-syntax-ns#"
   xmlns:svg="http://www.w3.org/2000/svg"
   xmlns="http://www.w3.org/2000/svg"
   xmlns:sodipodi="http://sodipodi.sourceforge.net/DTD/sodipodi-0.dtd"
   xmlns:inkscape="http://www.inkscape.org/namespaces/inkscape"
   id="svg2"
   version="1.1"
   inkscape:version="0.91 r"
   xml:space="preserve"
   width="16"
   height="16"
   viewBox="0 0 16 16"
   sodipodi:docname="stock_video-conferencing.svg"><metadata
     id="metadata8"><rdf:RDF><cc:Work
         rdf:about=""><dc:format>image/svg+xml</dc:format><dc:type
           rdf:resource="http://purl.org/dc/dcmitype/StillImage" /><dc:title /></cc:Work></rdf:RDF></metadata><defs
     id="defs6" /><sodipodi:namedview
     pagecolor="#ffffff"
     bordercolor="#666666"
     borderopacity="1"
     objecttolerance="10"
     gridtolerance="10"
     guidetolerance="10"
     inkscape:pageopacity="0"
     inkscape:pageshadow="2"
     inkscape:window-width="1920"
     inkscape:window-height="1056"
     id="namedview4"
     showgrid="true"
     inkscape:zoom="64"
     inkscape:cx="8.1784585"
     inkscape:cy="0.95996994"
     inkscape:window-x="0"
     inkscape:window-y="24"
     inkscape:window-maximized="1"
     inkscape:current-layer="g10"><inkscape:grid
       type="xygrid"
       id="grid4142" /></sodipodi:namedview><g
     id="g10"
     inkscape:groupmode="layer"
     inkscape:label="stock_video-conferencing"
     transform="matrix(1.25,0,0,-1.25,0,16)"><path
       inkscape:connector-curvature="0"
       id="path14"
       style="fill:#2d2d2d;fill-opacity:1;fill-rule:nonzero;stroke:none"
       d="M 4.8,4 8,4 8,0.8 4.8,0.8 4.8,4 Z" /><path
       inkscape:connector-curvature="0"
       id="path16"
       style="fill:#888888;fill-opacity:1;fill-rule:nonzero;stroke:none"
       d="M 6.3974992,12.8 C 3.7486715,12.8 1.6,10.652448 1.6,8 1.6,5.3525515 3.7486715,3.2 6.3974992,3.2 9.0513286,3.2 11.2,5.3525515 11.2,8 c 0,2.652448 -2.1486714,4.8 -4.8025008,4.8 z m 0,-2.718434 c 1.1493592,0 2.0826509,-0.9328053 2.0826509,-2.081566 0,-1.1477609 -0.9332917,-2.0775672 -2.0826509,-2.0775672 -1.1483588,0 -2.0786495,0.9298063 -2.0786495,2.0775672 0,1.1487607 0.9302907,2.081566 2.0786495,2.081566 z" /><path
       inkscape:connector-curvature="0"
       id="path18"
       style="fill:#888888;fill-opacity:1;fill-rule:nonzero;stroke:none"
       d="m 3.2899579,1.2787833 c 0.089958,0.4282889 6.1301264,0.4282889 6.2200843,0 C 9.6,0.85049429 9.6,0 9.6,0 L 3.2,0 c 0,0 0,0.85049429 0.089958,1.2787833 z" /><path
       inkscape:connector-curvature="0"
       id="path20"
       style="fill:#2d2d2d;fill-opacity:1;fill-rule:nonzero;stroke:none"
       d="M 6.3975005,10.4 C 5.0737764,10.4 4,9.3252242 4,7.9975006 4,6.6737764 5.0737764,5.6 6.3975005,5.6 7.7262237,5.6 8.8,6.6737764 8.8,7.9975006 8.8,9.3252242 7.7262237,10.4 6.3975005,10.4 Z m 0,-0.8008329 c 0.8868153,0 1.6016663,-0.7188503 1.6016663,-1.6016665 0,-0.8828161 -0.714851,-1.5966674 -1.6016663,-1.5966674 -0.8818163,0 -1.5966673,0.7138513 -1.5966673,1.5966674 0,0.8828162 0.714851,1.6016665 1.5966673,1.6016665 z" /></g></svg>

<!-- Created with Inkscape (http://www.inkscape.org/) -->
<svg xmlns="http://www.w3.org/2000/svg" viewBox="0 0 16 16">
 <g transform="matrix(1.25,0,0,-1.25,0,16)">
  <path d="m 4.8 4 3.2 0 0 -3.2 -3.2 0 0 3.2" style="fill:#2d2d2d;fill-opacity:1;stroke:none;fill-rule:nonzero"/>
  <path d="m 6.397 12.8 c -2.649 0 -4.797 -2.148 -4.797 -4.8 0 -2.647 2.149 -4.8 4.797 -4.8 2.654 0 4.803 2.153 4.803 4.8 c 0 2.652 -2.149 4.8 -4.803 4.8 z m 0 -2.718 c 1.149 0 2.083 -0.933 2.083 -2.082 0 -1.148 -0.933 -2.078 -2.083 -2.078 -1.148 0 -2.079 0.93 -2.079 2.078 0 1.149 0.93 2.082 2.079 2.082 z" style="fill:#888;fill-opacity:1;stroke:none;fill-rule:nonzero"/>
  <path d="m 3.29 1.279 c 0.09 0.428 6.13 0.428 6.22 0 c 0.09 -0.428 0.09 -1.279 0.09 -1.279 l -6.4 0 c 0 0 0 0.85 0.09 1.279 z" style="fill:#888;fill-opacity:1;stroke:none;fill-rule:nonzero"/>
  <path d="m 6.398 10.4 c -1.324 0 -2.398 -1.075 -2.398 -2.402 0 -1.324 1.074 -2.398 2.398 -2.398 1.329 0 2.402 1.074 2.402 2.398 0 1.328 -1.074 2.402 -2.402 2.402 m 0 -0.801 c 0.887 0 1.602 -0.719 1.602 -1.602 0 -0.883 -0.715 -1.597 -1.602 -1.597 -0.882 0 -1.597 0.714 -1.597 1.597 0 0.883 0.715 1.602 1.597 1.602 z" style="fill:#2d2d2d;fill-opacity:1;stroke:none;fill-rule:nonzero"/>
 </g>
</svg>
